X:1
L:1/8
M:2/2
K:G
 DDGA BBGB | d2 c2 A3 F | DFAB c2 Ac | e2 d2 B3 A | G2 B2 d2 g2 | (3fgf e2 A3 B | cBcA d2 F2 | 
 G6 z2 :: d2 B2 d2 g2 | (3fgf e2 A3 B | c2 A2 c2 f2 | (3efe d2 B3 c | d2 B2 d2 g2 | (3fgf e2 A3 B | 
 cBcA d2 F2 | G6 z2 :|
